X: 6388
T:Seamus Cussen's
M:2/4
L:1/16
S:Irish Traditional    Arranged by John Layton 14/2/01
R:Polka
O:Ireland
B:Mally - 100 Irish Polkas
K:G
D2|E3F G2A2|B2e2 e2d2|B2dB A2F2|E2F2 D4|
E3F G2A2|B2e2 e2d2|B2dB A2F2|F2E2 E2::e2|
B2e2 fef2|a2f2 e2d2|B2e2 fef2|a2f2 d4|
B2e2 fef2|a2f2 e2d2|B2dB A2F2|F2E2 E2:|
